X: 1
T: Tripping up the Stairs
C: Trad
R: Jig
M: 6/8
L: 1/8
K: Dmaj
Z: ABC transcription by Verge Roller
r: 32
|: G | "D" FAA "G" GBB | "D" FAd fed | "A" cBc ABc | "D" dfe "A" dAG |
"D" FAA "G" GBB | "D" FAd fed | "A" cBc ABc | "D" dfe d2  :|
|: c | "Bm" dBB fBB | "Bm" dBd fed | "A" cAA eAA | "A" cAc edc |
"Bm" dBB fBB | "Bm" dBd fed | "A" cBc ABc | "D" dfe d2 :|
